X:1
T: The Humors of Whiskey
C:
R:Jig
Q:180
K:D
M:6/8
L:1/16
A2|d2f2d2 e2c2A2|d2c2B2 A2G2F2|G2B2B2 F2A2A2|G2F2G2 E4A2|d2c2d2 e2c2A2|d2c2B2 A2F2A2|B2c2d2 e2f2g2|f2d2d2 d4A2|
d2f2d2 e2c2A2|d2c2B2 A2G2F2|G2B2B2 F2A2A2|G2F2G2 E4A2|d2c2d2 e2c2A2|d2c2B2 A2F2A2|B2c2d2 e2f2g2|f2d2d2 d4B2|
A2F2A2 d2c2d2|B2G2B2 e2d2e2|A2F2A2 d2A2F2|G2F2G2 E2F2G2|A2F2A2 d2c2d2|B2G2B2 e2d2e2|f2a2f2 e2d2e2|f2d2d2 d4B2|
A2F2A2 d2c2d2|B2G2B2 e2d2e2|A2F2A2 d2A2F2|G2F2G2 E2F2G2|A2F2A2 d2c2d2|B2G2B2 e2d2e2|f2a2f2 e2d2e2|f2d2d2 d4||
